X:407
T: Youjidui dadehao
N: C2025
O: China,Jiangsu Pixian
S: III, 461, 1)]
R: Xiaodiao, Gewu, Gaoqiao diao]
M: 2/4
L: 1/16
K: F
f4A2c2 | f4d2c2 | c2d2c2Ac | c2A2G4 |
G3Ac4 | d4A2G2 | F2A2G2F2 | C8 |
C2E2F4 | E2c2A2c2 | G2A2G2F2 | F6z2 |
G3Ac4 | c3AG4 | c2F4c2 | D3GGFDF | C8

@@@ Tune index: 6962
